X:1
T:Title
%%score { 1 | 2 }
L:1/8
M:4/4
K:G
V:1 treble nm="Grand Piano"
V:2 bass 
V:1
 z4 z2 z[Q:1/4=100] [Bd] | [Bd][Bd][ce][_B^c] [=Bd] [Bd]2 [Bd]/[Bd]/ | %2
[M:7/8] [ce][ce][ce] [ce] [Bd]3 |[M:1/8] [Bd] |[M:4/4] [Ad][FA][FA][GB] [Ac][Ac][Bd][_B^c] | %5
 [Ad]6 z [Bd] | [Bd]<[Bd] [GB][Ac] [Bd] [Bd]2 [Bd] | [ce][ce][ce][c^d] [B=d]3 [Bd] | %8
 [Ad][FA][FA][GB] [Ac][Ac][Bd][Ac] |[M:7/8] [GB]-[GB]-[GB]- [GB]3 z |[M:1/8] [Bd] | %11
[M:4/4] [Bd]<[Bd] [GB][Ac] [Bd]3 [Bd] |[M:7/8] [ce]<[ce][ce] [c^d] [B=d]3 |[M:1/8] [Bd] | %14
[M:4/4] [Ad][FA][FA][GB] [Ac][Ac][Bd][_B^c] | [Ad]6 z [Bd] | [Bd]<[Bd] [GB][Ac] [Bd] [Bd]2 [Bd] | %17
 [ce][ce][ce][c^d] [B=d]3 [Bd] | [Ad][FA][FA][GB] [Ac][Ac][Bd][Ac] |[M:15/8] [GB]6 z3 z6 |] %20
V:2
 z4 z2 z [G,,G,] | [G,,G,][G,,G,][G,,G,][G,,G,] [G,,G,] [G,,G,]2 [G,,G,] | %2
[M:7/8] [C,G,][D,G,][E,G,] [F,G,] G,3 |[M:1/8] G, | %4
[M:4/4] [D,F,]D,D,D, [D,F,][D,F,][G,,G,][A,,E,] | [D,F,]6 z [G,,G,] | %6
 [G,,G,]<[G,,G,] [G,,D,][G,,D,] [G,,G,]3 [G,,G,] | [C,G,][C,G,][C,G,][C,G,] [G,,G,]3 [G,,G,] | %8
 [D,F,]D,D,[D,G,] [D,F,][D,F,][D,G,][D,F,] |[M:7/8] [G,,D,]-[G,,D,]-[G,,D,]- [G,,D,]3 z | %10
[M:1/8] [G,,G,] |[M:4/4] [G,,G,]<[G,,G,] [G,,D,][G,,D,] [G,,G,]3 [G,,G,] | %12
[M:7/8] [C,G,]<[C,G,][C,G,] [C,G,] [G,,G,]3 |[M:1/8] G, | %14
[M:4/4] [D,F,]D,D,D, [D,F,][D,F,][G,,G,][A,,E,] | [D,F,]6 z [G,,G,] | %16
 [G,,G,]<[G,,G,] [G,,D,][G,,D,] [G,,G,]3 [G,,G,] | [C,G,][C,G,][C,G,][C,G,] [G,,G,]3 [G,,G,] | %18
 [D,F,]D,D,[D,G,] [D,F,][D,F,][D,G,][D,F,] |[M:15/8] [G,,D,]6 z3 z6 |] %20

